public/images/icons/Express.svg

<svg width="200" height="199" viewBox="0 0 200 199" fill="none" xmlns="http://www.w3.org/2000/svg">
<path d="M198.857 99.4289C198.857 125.516 188.442 150.535 169.903 168.982C151.363 187.429 126.219 197.792 100 197.792C73.7814 197.792 48.6367 187.429 30.0974 168.982C11.5581 150.535 1.14282 125.516 1.14282 99.4289C1.14282 73.3415 11.5581 48.3225 30.0974 29.8759C48.6367 11.4293 73.7814 1.06607 100 1.06607C126.219 1.06607 151.363 11.4293 169.903 29.8759C188.442 48.3225 198.857 73.3415 198.857 99.4289ZM42.8214 102.165H93.6071C94.7976 102.165 95.3928 101.573 95.3928 100.388C95.2857 80.1686 84.3571 61.0148 62.5 61.2636C16.7857 61.8321 14.9643 136.066 61.8928 137.452C77.3214 137.902 87.8928 131.316 93.6071 117.694C94.6785 115.112 93.8214 113.821 91.0357 113.821H85.1428C84.2765 113.823 83.433 114.091 82.7292 114.588C82.0253 115.084 81.4959 115.785 81.2143 116.593C79.7857 120.644 77.1071 123.439 73.1785 124.979C56.5714 131.518 40.8214 122.598 40.5714 104.439C40.5476 102.923 41.2976 102.165 42.8214 102.165ZM135.821 86.7427C135.717 86.8873 135.578 87.0045 135.418 87.0842C135.258 87.1639 135.08 87.2038 134.901 87.2003C134.722 87.1968 134.547 87.1501 134.39 87.0642C134.233 86.9783 134.099 86.8558 134 86.7071L116.786 61.8677C116.684 61.726 116.55 61.6102 116.395 61.5299C116.24 61.4496 116.068 61.4071 115.893 61.4057L102.429 61.228C102.226 61.2296 102.028 61.2864 101.855 61.3924C101.683 61.4984 101.543 61.6494 101.451 61.829C101.359 62.0086 101.318 62.2099 101.333 62.4109C101.348 62.612 101.418 62.8051 101.536 62.9693L126.393 96.7637C126.527 96.9505 126.599 97.1741 126.599 97.4034C126.599 97.6327 126.527 97.8563 126.393 98.043L99.3928 136.066C99.2832 136.233 99.2209 136.425 99.2125 136.624C99.2041 136.823 99.2499 137.02 99.3451 137.195C99.4404 137.37 99.5814 137.516 99.7533 137.618C99.9252 137.719 100.121 137.772 100.321 137.772L112.964 137.452C113.139 137.451 113.311 137.408 113.466 137.328C113.622 137.248 113.756 137.132 113.857 136.99L133.964 107.353C134.065 107.199 134.202 107.073 134.365 106.985C134.527 106.898 134.708 106.852 134.893 106.852C135.077 106.852 135.259 106.898 135.421 106.985C135.583 107.073 135.721 107.199 135.821 107.353L155.679 136.99C155.776 137.138 155.908 137.261 156.064 137.348C156.219 137.434 156.393 137.482 156.571 137.488L170.214 137.665C170.417 137.664 170.615 137.607 170.788 137.501C170.96 137.395 171.1 137.244 171.192 137.064C171.284 136.885 171.325 136.684 171.31 136.482C171.295 136.281 171.225 136.088 171.107 135.924L143.179 97.1191C143.05 96.9287 142.984 96.7031 142.991 96.4738C142.997 96.2444 143.075 96.0228 143.214 95.8398L167.75 63.0048C167.869 62.8382 167.94 62.6418 167.954 62.4375C167.967 62.2333 167.923 62.0293 167.827 61.8485C167.73 61.6677 167.585 61.5172 167.408 61.4139C167.23 61.3105 167.027 61.2585 166.821 61.2636L154.357 61.4057C154.182 61.4071 154.01 61.4496 153.855 61.5299C153.7 61.6102 153.566 61.726 153.464 61.8677L135.821 86.7427Z" fill="white"/>
<path d="M41.4999 92.3573C41.3483 92.3573 41.203 92.2974 41.0958 92.1908C40.9887 92.0842 40.9285 91.9395 40.9285 91.7887V91.4334C40.9375 86.2932 43.09 81.3667 46.9135 77.7356C50.7369 74.1046 55.9187 72.0656 61.3213 72.0664H61.8928C64.5737 72.0668 67.2283 72.5702 69.7047 73.5476C72.1811 74.5251 74.4307 75.9575 76.3248 77.7629C78.2189 79.5683 79.7203 81.7113 80.7431 84.0692C81.7659 86.4272 82.2901 88.9538 82.2856 91.5045V91.8598C82.2858 91.9376 82.2699 92.0145 82.239 92.0859C82.208 92.1573 82.1627 92.2217 82.1058 92.275C82.0489 92.3283 81.9816 92.3694 81.9081 92.3958C81.8346 92.4221 81.7565 92.4333 81.6785 92.4284L41.4999 92.3573Z" fill="white"/>
</svg>

<svg width="200" height="199" fill="none" xmlns="http://www.w3.org/2000/svg"><path d="M198.857 99.429c0 26.087-10.415 51.106-28.954 69.553-18.54 18.447-43.684 28.81-69.903 28.81-26.219 0-51.363-10.363-69.903-28.81-18.539-18.447-28.954-43.466-28.954-69.553 0-26.088 10.415-51.107 28.954-69.553C48.637 11.429 73.781 1.066 100 1.066c26.219 0 51.363 10.363 69.903 28.81 18.539 18.446 28.954 43.465 28.954 69.553Zm-156.036 2.736h50.786c1.19 0 1.786-.592 1.786-1.777-.107-20.22-11.036-39.373-32.893-39.124-45.714.568-47.536 74.802-.607 76.188 15.428.45 26-6.136 31.714-19.758 1.072-2.582.214-3.873-2.571-3.873h-5.893c-.867.002-1.71.27-2.414.767a4.108 4.108 0 0 0-1.515 2.005c-1.428 4.051-4.107 6.846-8.035 8.386-16.608 6.539-32.358-2.381-32.608-20.54-.023-1.516.727-2.274 2.25-2.274Zm93-15.422a1.101 1.101 0 0 1-.92.457 1.109 1.109 0 0 1-.901-.493l-17.214-24.84a1.112 1.112 0 0 0-.893-.461l-13.464-.178a1.114 1.114 0 0 0-.978.601 1.097 1.097 0 0 0 .085 1.14l24.857 33.795a1.097 1.097 0 0 1 0 1.279l-27 38.023a1.1 1.1 0 0 0 .928 1.706l12.643-.32a1.109 1.109 0 0 0 .893-.462l20.107-29.637a1.107 1.107 0 0 1 .929-.501 1.105 1.105 0 0 1 .928.501l19.858 29.637a1.102 1.102 0 0 0 .892.498l13.643.177a1.108 1.108 0 0 0 .978-.601 1.095 1.095 0 0 0-.085-1.14l-27.928-38.805a1.095 1.095 0 0 1 .035-1.28l24.536-32.834c.119-.167.19-.363.204-.568a1.106 1.106 0 0 0-1.133-1.173l-12.464.142a1.11 1.11 0 0 0-.893.462l-17.643 24.875Z" fill="#fff"/><path d="M41.5 92.357a.573.573 0 0 1-.572-.568v-.356c.01-5.14 2.162-10.066 5.986-13.697 3.823-3.631 9.005-5.67 14.407-5.67h.572c2.68 0 5.335.504 7.812 1.482a20.495 20.495 0 0 1 6.62 4.215 19.37 19.37 0 0 1 4.418 6.306 18.589 18.589 0 0 1 1.543 7.435v.356a.565.565 0 0 1-.378.536.575.575 0 0 1-.23.032l-40.178-.07Z" fill="#fff"/></svg>
